X:112
T:Didn't She Dance and Dance
T:She Didn't Dance and Dance
R:slide
H:See also "My Mind Will Never Be Easy", slip jig#52
Z:id:hn-slide-112
M:6/8
L:1/8
K:Edor
g2f |: e2d B2A | G2F G2A | Bdd edB | d3 dgf |
e2d B2A | G2F G3 | efg fed |1 e2f g2f :|2 e3 e2d ||
Bcd e2f | g2f g2B | BAB d2B | d3 B2A | 
Bcd e2f | g2f g2a | bag agf | e3 e2d | 
Bcd e2f | g2f g2B | BAB d2B | d3 g2a | 
bag agf | gfe fed | efg fed | e2f ||

